X: 104203
Q:"Strathspey."
M: C
L: 1/16
K: D
|: ud2 |\
uA2 |\
vd4 uf3ud vB3ue dcBA | d3ef3d B4 (B3A) |
d3ef3d B3ue dcBA | d3B (AF3) E4- E3c |\
d4 f3d B3ue dcBA | d3ef3d B4- B3g |\
(3f2e2d2 (3c2d2e2 (3d2c2B2 (3A2B2c2 | d3B (AF3) E4- E2 |]


